src/module-process.svg

<?xml version="1.0" encoding="UTF-8" standalone="no"?>
<svg
   xmlns:dc="http://purl.org/dc/elements/1.1/"
   xmlns:cc="http://creativecommons.org/ns#"
   xmlns:rdf="http://www.w3.org/1999/02/22-rdf-syntax-ns#"
   xmlns:svg="http://www.w3.org/2000/svg"
   xmlns="http://www.w3.org/2000/svg"
   xmlns:sodipodi="http://sodipodi.sourceforge.net/DTD/sodipodi-0.dtd"
   xmlns:inkscape="http://www.inkscape.org/namespaces/inkscape"
   width="1024"
   height="1024"
   viewBox="0 0 1024 1024"
   version="1.1"
   id="svg2"
   inkscape:version="0.91 r13725"
   sodipodi:docname="module-process.svg">
  <metadata
     id="metadata15">
    <rdf:RDF>
      <cc:Work
         rdf:about="">
        <dc:format>image/svg+xml</dc:format>
        <dc:type
           rdf:resource="http://purl.org/dc/dcmitype/StillImage" />
        <dc:title>acc_process_autit</dc:title>
      </cc:Work>
    </rdf:RDF>
  </metadata>
  <sodipodi:namedview
     pagecolor="#ffffff"
     bordercolor="#666666"
     borderopacity="1"
     objecttolerance="10"
     gridtolerance="10"
     guidetolerance="10"
     inkscape:pageopacity="0"
     inkscape:pageshadow="2"
     inkscape:window-width="1366"
     inkscape:window-height="703"
     id="namedview13"
     showgrid="false"
     inkscape:zoom="0.49166667"
     inkscape:cx="267.34852"
     inkscape:cy="454.42057"
     inkscape:window-x="0"
     inkscape:window-y="0"
     inkscape:window-maximized="1"
     inkscape:current-layer="svg2" />
  <!-- Generator: Sketch 3.8.3 (29802) - http://www.bohemiancoding.com/sketch -->
  <title
     id="title4">acc_process_autit</title>
  <desc
     id="desc6">Created with Sketch.</desc>
  <defs
     id="defs8" />
  <path
     style="fill:#000000;fill-rule:evenodd;stroke:none;stroke-width:1;fill-opacity:1"
     d="M 399.3741,95.399402 302.39291,76.47302 312.77379,106.74936 C 144.6535,178.96032 26.57286,346.03812 26.57286,540.25009 c 0,63.1956 12.730156,123.48396 35.386017,178.60393 -15.431828,13.42025 -25.240067,33.15419 -25.240067,55.11998 0,40.31948 32.801808,73.12131 73.12131,73.12131 40.3195,0 73.13599,-32.80183 73.13599,-73.12131 0,-40.31952 -32.81649,-73.13601 -73.13599,-73.13601 -6.41647,0 -12.612692,0.92503 -18.573988,2.46674 C 70.95955,652.83929 59.609597,597.89552 59.609597,540.19135 c 0,-179.74921 108.800993,-334.49329 263.882773,-402.12317 l 10.95352,31.83273 64.92821,-74.501508 z M 149.93938,774.03271 c 0,22.08323 -17.9573,40.08457 -40.09926,40.08457 -22.083223,0 -40.084573,-18.00134 -40.084573,-40.08457 0,-22.08321 17.957301,-40.09924 40.084573,-40.09924 22.08322,0 40.09926,17.95729 40.09926,40.09924 l 0,0 z M 964.7281,608.43792 c 3.27442,-22.24474 5.22714,-45.01806 5.22714,-68.18783 0,-235.50056 -173.56766,-431.09272 -399.49489,-465.964835 -5.27122,-35.209821 -35.60628,-62.285262 -72.21098,-62.285262 -40.31951,0 -73.12131,32.816492 -73.12131,73.135996 0,40.319501 32.8018,73.121311 73.12131,73.121311 32.58155,0 60.28836,-21.45185 69.70019,-50.97936 208.88027,33.49191 368.96894,214.84158 368.96894,433.03086 0,20.64431 -1.67386,40.89215 -4.4783,60.72889 l -31.31883,-7.22403 28.96954,94.52911 67.33623,-72.32843 -32.69904,-7.57642 z M 498.24937,125.16183 c -22.06854,0 -40.08457,-18.00135 -40.08457,-40.084574 0,-22.083225 17.95729,-40.099258 40.08457,-40.099258 22.08324,0 40.09927,18.016033 40.09927,40.099258 0,22.083224 -17.95733,40.084574 -40.09927,40.084574 l 0,0 z m 388.42393,575.7349 c -40.31951,0 -73.136,32.8165 -73.136,73.13598 0,19.04385 7.40023,36.3551 19.38155,49.37891 -80.52154,95.04304 -200.62842,155.55165 -334.61074,155.55165 -97.15739,0 -186.97326,-31.89147 -259.75686,-85.57248 l 21.62805,-24.60872 -96.93713,-19.39621 31.71527,93.60408 21.74551,-24.77022 C 295.33039,977.01042 392.78141,1012 498.30811,1012 c 145.34695,0 275.30615,-66.19092 361.92111,-169.89692 8.19311,3.21557 17.14975,5.05094 26.50283,5.05094 40.31948,0 73.12131,-32.8018 73.12131,-73.12131 0,-40.31948 -32.86054,-73.13598 -73.18006,-73.13598 l 0,0 z m 0,113.22055 c -22.08323,0 -40.09927,-18.00134 -40.09927,-40.08457 0,-22.08321 18.01604,-40.09924 40.09927,-40.09924 22.08324,0 40.08458,18.01603 40.08458,40.09924 0,22.08323 -18.00134,40.08457 -40.08458,40.08457 l 0,0 z"
     id="Page-1-Copy-2"
     inkscape:connector-curvature="0" />
</svg>

<?xml version="1.0" encoding="UTF-8"?>
<svg xmlns="http://www.w3.org/2000/svg" xmlns:xlink="http://www.w3.org/1999/xlink" width="1024pt" height="1024pt" viewBox="0 0 1024 1024" version="1.1">
<g id="surface1">
<path style=" stroke:none;fill-rule:evenodd;fill:rgb(0%,0%,0%);fill-opacity:1;" d="M 399.375 95.398438 L 302.394531 76.472656 L 312.773438 106.75 C 144.652344 178.960938 26.574219 346.039062 26.574219 540.25 C 26.574219 603.445312 39.304688 663.734375 61.957031 718.855469 C 46.527344 732.273438 36.71875 752.007812 36.71875 773.972656 C 36.71875 814.292969 69.519531 847.09375 109.839844 847.09375 C 150.160156 847.09375 182.976562 814.292969 182.976562 773.972656 C 182.976562 733.65625 150.160156 700.839844 109.839844 700.839844 C 103.421875 700.839844 97.226562 701.761719 91.265625 703.304688 C 70.960938 652.839844 59.609375 597.894531 59.609375 540.191406 C 59.609375 360.441406 168.410156 205.699219 323.492188 138.066406 L 334.445312 169.902344 Z M 149.9375 774.03125 C 149.9375 796.117188 131.980469 814.117188 109.839844 814.117188 C 87.757812 814.117188 69.753906 796.117188 69.753906 774.03125 C 69.753906 751.949219 87.710938 733.933594 109.839844 733.933594 C 131.921875 733.933594 149.9375 751.890625 149.9375 774.03125 Z M 964.726562 608.4375 C 968.003906 586.191406 969.957031 563.417969 969.957031 540.25 C 969.957031 304.75 796.386719 109.15625 570.460938 74.285156 C 565.1875 39.074219 534.855469 12 498.25 12 C 457.929688 12 425.128906 44.816406 425.128906 85.136719 C 425.128906 125.457031 457.929688 158.257812 498.25 158.257812 C 530.832031 158.257812 558.539062 136.804688 567.949219 107.277344 C 776.828125 140.769531 936.917969 322.121094 936.917969 540.308594 C 936.917969 560.953125 935.246094 581.199219 932.441406 601.039062 L 901.121094 593.8125 L 930.089844 688.34375 L 997.425781 616.015625 Z M 498.25 125.160156 C 476.179688 125.160156 458.164062 107.160156 458.164062 85.078125 C 458.164062 62.992188 476.121094 44.976562 498.25 44.976562 C 520.332031 44.976562 538.347656 62.992188 538.347656 85.078125 C 538.347656 107.160156 520.390625 125.160156 498.25 125.160156 Z M 886.671875 700.898438 C 846.355469 700.898438 813.539062 733.714844 813.539062 774.03125 C 813.539062 793.078125 820.9375 810.386719 832.917969 823.410156 C 752.398438 918.453125 632.289062 978.964844 498.308594 978.964844 C 401.152344 978.964844 311.335938 947.070312 238.550781 893.390625 L 260.179688 868.78125 L 163.242188 849.386719 L 194.957031 942.988281 L 216.703125 918.21875 C 295.332031 977.011719 392.78125 1012 498.308594 1012 C 643.65625 1012 773.613281 945.808594 860.230469 842.101562 C 868.421875 845.320312 877.378906 847.152344 886.730469 847.152344 C 927.050781 847.152344 959.851562 814.351562 959.851562 774.03125 C 959.851562 733.714844 926.992188 700.898438 886.671875 700.898438 Z M 886.671875 814.117188 C 864.589844 814.117188 846.574219 796.117188 846.574219 774.03125 C 846.574219 751.949219 864.589844 733.933594 886.671875 733.933594 C 908.757812 733.933594 926.757812 751.949219 926.757812 774.03125 C 926.757812 796.117188 908.757812 814.117188 886.671875 814.117188 Z M 886.671875 814.117188 "/>
</g>
</svg>
